Adwaita++/apps/scalable/immagini.svg

<svg enable-background="new" height="128" viewBox="0 0 128 128" width="128" xmlns="http://www.w3.org/2000/svg" xmlns:xlink="http://www.w3.org/1999/xlink">
  <radialGradient id="radialGradient879" cx="131.915" cy="55.927" gradientTransform="matrix(.30782984 -.71835162 -.48926311 -.03958713 -13.967261 153.29823)" gradientUnits="userSpaceOnUse" r="160">
    <stop offset="0" stop-color="#e01b24"/>
    <stop offset="1" stop-color="#f8e45c"/>
  </radialGradient>
  <radialGradient id="radialGradient881" cx="525.588" cy="638.592" gradientTransform="matrix(-.17229795 -.3442702 -.33517887 .23629935 428.23673 127.45786)" gradientUnits="userSpaceOnUse" r="192">
    <stop offset="0" stop-color="#2ec27e"/>
    <stop offset="1" stop-color="#57e389" stop-opacity="0"/>
  </radialGradient>
  <radialGradient id="radialGradient1249-3" cx="-172" cy="20.939" gradientTransform="matrix(1.1986271 0 0 1.0945536 178.16386 153.90715)" gradientUnits="userSpaceOnUse" r="15.857">
    <stop offset="0" stop-color="#fff"/>
    <stop offset="1" stop-color="#fff" stop-opacity=".094488"/>
  </radialGradient>
  <linearGradient id="linearGradient1247-5" gradientUnits="userSpaceOnUse" x1="9.9999968" x2="118.3871128" y1="203.7419123" y2="203.7419123">
    <stop offset="0" stop-color="#949390"/>
    <stop offset=".091" stop-color="#deddda"/>
    <stop offset=".336" stop-color="#9a9996"/>
    <stop offset=".844" stop-color="#c3c0ba"/>
    <stop offset=".931" stop-color="#deddda"/>
    <stop offset="1" stop-color="#c0bfbc"/>
  </linearGradient>
  <g transform="translate(0 -172)">
    <circle cy="172" fill="#9059a1" r="0"/>
    <g enable-background="new" transform="matrix(.3040254139 0 0 .3420286504 -12.56682534161 222.68956863947)">
      <path d="m33.435547 21.958984a50.711864 49.35593 0 0 0 -.958985.667969 50.711864 49.35593 0 0 0 -3.808593 3.255859 50.711864 49.35593 0 0 0 -3.455078 3.609376 50.711864 49.35593 0 0 0 -3.066407 3.927734 50.711864 49.35593 0 0 0 -2.65039 4.205078 50.711864 49.35593 0 0 0 -2.205078 4.443359 50.711864 49.35593 0 0 0 -1.738282 4.634766 50.711864 49.35593 0 0 0 -1.253906 4.779297 50.711864 49.35593 0 0 0 -.757812 4.878906 50.711864 49.35593 0 0 0 -.251954 4.927734 50.711864 49.35593 0 0 0 .126954 3.490235 50.711864 49.35593 0 0 0 .609375 4.898437 50.711864 49.35593 0 0 0 1.111328 4.8125 50.711864 49.35593 0 0 0 1.597656 4.681641 50.711864 49.35593 0 0 0 2.070313 4.503906 50.711864 49.35593 0 0 0 2.523437 4.279297 50.711864 49.35593 0 0 0 2.947266 4.013672 50.711864 49.35593 0 0 0 3.345703 3.705078 50.711864 49.35593 0 0 0 3.708984 3.363281 50.711864 49.35593 0 0 0 4.035156 2.986331 50.711864 49.35593 0 0 0 4.322266 2.57812 50.711864 49.35593 0 0 0 4.564453 2.14649 50.711864 49.35593 0 0 0 4.761719 1.6914 50.711864 49.35593 0 0 0 4.33789 1.07813h21.136719a50.711864 49.35593 0 0 0 3.076172-.67188 50.711864 49.35593 0 0 0 4.810547-1.55664 50.711864 49.35593 0 0 0 4.626953-2.01367 50.711864 49.35593 0 0 0 4.398438-2.45508 50.711864 49.35593 0 0 0 4.123047-2.871091 50.711864 49.35593 0 0 0 3.808593-3.25586 50.711864 49.35593 0 0 0 3.455079-3.609375 50.711864 49.35593 0 0 0 3.06641-3.927734 50.711864 49.35593 0 0 0 2.65039-4.205078 50.711864 49.35593 0 0 0 2.20507-4.44336 50.711864 49.35593 0 0 0 1.73829-4.634765 50.711864 49.35593 0 0 0 1.2539-4.779297 50.711864 49.35593 0 0 0 .75781-4.878906 50.711864 49.35593 0 0 0 .25196-4.925782 50.711864 49.35593 0 0 0 -.12696-3.492187 50.711864 49.35593 0 0 0 -.60937-4.898437 50.711864 49.35593 0 0 0 -1.11133-4.8125 50.711864 49.35593 0 0 0 -1.59766-4.681641 50.711864 49.35593 0 0 0 -2.07031-4.503906 50.711864 49.35593 0 0 0 -2.52343-4.279297 50.711864 49.35593 0 0 0 -2.94727-4.013672 50.711864 49.35593 0 0 0 -3.3457-3.705078 50.711864 49.35593 0 0 0 -3.708988-3.363282 50.711864 49.35593 0 0 0 -2.134766-1.580078z" fill="url(#radialGradient879)" transform="matrix(3.2891987 0 0 2.9237317 41.334787 -148.2027)"/>
      <path d="m33.435547 21.958984a50.711864 49.35593 0 0 0 -.958985.667969 50.711864 49.35593 0 0 0 -3.808593 3.255859 50.711864 49.35593 0 0 0 -3.455078 3.609376 50.711864 49.35593 0 0 0 -3.066407 3.927734 50.711864 49.35593 0 0 0 -2.65039 4.205078 50.711864 49.35593 0 0 0 -2.205078 4.443359 50.711864 49.35593 0 0 0 -1.738282 4.634766 50.711864 49.35593 0 0 0 -1.253906 4.779297 50.711864 49.35593 0 0 0 -.757812 4.878906 50.711864 49.35593 0 0 0 -.251954 4.927734 50.711864 49.35593 0 0 0 .126954 3.490235 50.711864 49.35593 0 0 0 .609375 4.898437 50.711864 49.35593 0 0 0 1.111328 4.8125 50.711864 49.35593 0 0 0 1.597656 4.681641 50.711864 49.35593 0 0 0 2.070313 4.503906 50.711864 49.35593 0 0 0 2.523437 4.279297 50.711864 49.35593 0 0 0 2.947266 4.013672 50.711864 49.35593 0 0 0 3.345703 3.705078 50.711864 49.35593 0 0 0 3.708984 3.363281 50.711864 49.35593 0 0 0 4.035156 2.986331 50.711864 49.35593 0 0 0 4.322266 2.57812 50.711864 49.35593 0 0 0 4.564453 2.14649 50.711864 49.35593 0 0 0 4.761719 1.6914 50.711864 49.35593 0 0 0 4.33789 1.07813h21.136719a50.711864 49.35593 0 0 0 3.076172-.67188 50.711864 49.35593 0 0 0 4.810547-1.55664 50.711864 49.35593 0 0 0 4.626953-2.01367 50.711864 49.35593 0 0 0 4.398438-2.45508 50.711864 49.35593 0 0 0 4.123047-2.871091 50.711864 49.35593 0 0 0 3.808593-3.25586 50.711864 49.35593 0 0 0 3.455079-3.609375 50.711864 49.35593 0 0 0 3.06641-3.927734 50.711864 49.35593 0 0 0 2.65039-4.205078 50.711864 49.35593 0 0 0 2.20507-4.44336 50.711864 49.35593 0 0 0 1.73829-4.634765 50.711864 49.35593 0 0 0 1.2539-4.779297 50.711864 49.35593 0 0 0 .75781-4.878906 50.711864 49.35593 0 0 0 .25196-4.925782 50.711864 49.35593 0 0 0 -.12696-3.492187 50.711864 49.35593 0 0 0 -.60937-4.898437 50.711864 49.35593 0 0 0 -1.11133-4.8125 50.711864 49.35593 0 0 0 -1.59766-4.681641 50.711864 49.35593 0 0 0 -2.07031-4.503906 50.711864 49.35593 0 0 0 -2.52343-4.279297 50.711864 49.35593 0 0 0 -2.94727-4.013672 50.711864 49.35593 0 0 0 -3.3457-3.705078 50.711864 49.35593 0 0 0 -3.708988-3.363282 50.711864 49.35593 0 0 0 -2.134766-1.580078z" fill="url(#radialGradient881)" transform="matrix(3.2891987 0 0 2.9237317 41.334787 -148.2027)"/>
    </g>
    <path d="m64.004546 180.05997c-27.792397 0-50.322589 22.53019-50.322589 50.32259.01819 4.01036.515634.26222 1.481855 4.15447 5.198792-22.90099 25.546071-39.16156 49.029746-39.18221 23.189273.0255 43.358742 15.89418 48.840752 38.42618.84468-3.6537 1.27833.3516 1.29282-3.39844 0-27.7924-22.530189-50.32259-50.322584-50.32259zm-54.004546 46.2626v15.48387c0 29.93027 24.263296 54.19356 54.193558 54.19356 29.930273 0 54.193562-24.26329 54.193562-54.19356v-15.48387c0 13.84045-5.19575 25.30452-13.73361 33.6366-9.454849 13.01499-24.562219 20.72532-40.648964 20.74598-16.661453-.0194-32.233159-8.28444-41.586448-22.07285-7.755218-8.20548-12.418098-19.19249-12.418098-32.30973z" fill="url(#linearGradient1247-5)"/>
    <g enable-background="new" transform="matrix(2.5201617 0 0 2.5201617 135.24414 -263.37104)">
      <path d="m-27.999999 179.7184c-9.649942.009-17.790289 7.43348-19.007134 17.335 1.197386 9.91882 9.343034 17.36654 19.007134 17.37859 9.649942-.009 17.790289-7.43348 19.0071335-17.33499-1.1973855-9.91882-9.3430345-17.36654-19.0071335-17.3786z" fill="url(#radialGradient1249-3)"/>
      <path d="m-28.192866 177.4144c-10.603867 0-19.2 8.59613-19.2 19.2.0077.79575.06482 1.39825.171094 2.1869 0-9.0989 9.36791-16.76992 19.028906-16.7789 9.67517.0117 19.028906 7.68 19.028906 16.8211.1080352-.80261.1651807-1.41927.171094-2.2291 0-10.60387-8.596133-19.2-19.2-19.2z" fill="#453637" opacity=".1"/>
    </g>
    <circle cx="64.194" cy="230.194" fill="none" r="50.323" stroke="#f6f5f4" stroke-linecap="square" stroke-linejoin="round" stroke-width="7.741936"/>
    <g fill="#f6f5f4">
      <circle cx="106.774" cy="187.613" r="11.613"/>
      <path d="m106.77423 199.22583 11.61291-11.61291v42.58064h-5.80645z"/>
      <path d="m95.161321 187.61292 11.612909-11.6129h-42.58066v5.80645z"/>
    </g>
    <circle cx="108.71" cy="185.678" fill="#c0bfbc" r="3.871"/>
  </g>
</svg>

<svg xmlns="http://www.w3.org/2000/svg" xmlns:xlink="http://www.w3.org/1999/xlink" style="enable-background:new" width="128" height="128" version="1.0" viewBox="0 0 128 128">
 <title id="title4162">
  Adwaita Icon Template
 </title>
 <defs>
  <linearGradient id="linearGradient1722">
   <stop style="stop-color:#e01b24" id="stop1718" offset="0"/>
   <stop style="stop-color:#f8e45c" id="stop1720" offset="1"/>
  </linearGradient>
  <linearGradient id="linearGradient1594">
   <stop id="stop1590" offset="0" style="stop-color:#2ec27e"/>
   <stop id="stop1592" offset="1" style="stop-color:#57e389;stop-opacity:0"/>
  </linearGradient>
  <linearGradient id="linearGradient1209">
   <stop style="stop-color:#949390" id="stop1196" offset="0"/>
   <stop id="stop1198" offset=".091" style="stop-color:#deddda"/>
   <stop style="stop-color:#9a9996" id="stop1200" offset=".336"/>
   <stop id="stop1202" offset=".844" style="stop-color:#c3c0ba"/>
   <stop style="stop-color:#deddda" id="stop1204" offset=".931"/>
   <stop style="stop-color:#c0bfbc" id="stop1206" offset="1"/>
  </linearGradient>
  <linearGradient id="linearGradient8959">
   <stop style="stop-color:#ffffff" id="stop8955" offset="0"/>
   <stop style="stop-color:#ffffff;stop-opacity:0.09448819" id="stop8957" offset="1"/>
  </linearGradient>
  <clipPath id="clipPath1599" clipPathUnits="userSpaceOnUse">
   <path d="M 492.30769,-59.384613 393.84615,-197.23077 H 147.6923 v 482.46154 h 344.61539 z" style="fill:#1c71d8"/>
  </clipPath>
  <clipPath id="clipPath9424" clipPathUnits="userSpaceOnUse">
   <path d="M 41.125566,217.49784 A 12.742462,12.742462 0 0 0 28.496653,228.63349 12.742462,12.742462 0 0 0 41.125566,239.79715 12.742462,12.742462 0 0 0 53.754478,228.6615 12.742462,12.742462 0 0 0 41.125566,217.49784 Z" style="fill:none;stroke:#000000;stroke-width:2;stroke-linecap:square;stroke-linejoin:round"/>
  </clipPath>
  <linearGradient id="linearGradient1247" x1="22" x2="62" y1="37" y2="37" gradientTransform="matrix(1.4,0,0,1.4,21.102428,162.53333)" gradientUnits="userSpaceOnUse" xlink:href="#linearGradient1209"/>
  <radialGradient id="radialGradient1249" cx="-172" cy="20.939" r="15.857" fx="-172" fy="20.939" gradientTransform="matrix(1.1986271,0,0,1.0945536,178.16386,153.90715)" gradientUnits="userSpaceOnUse" xlink:href="#linearGradient8959"/>
  <radialGradient id="radialGradient2561" cx="131.915" cy="55.927" r="160" fx="131.915" fy="55.927" gradientTransform="matrix(1.0125135,2.1002674,-1.6092836,0.11574215,-4.6063107,-300.00018)" gradientUnits="userSpaceOnUse" xlink:href="#linearGradient1722"/>
  <radialGradient id="radialGradient3300" cx="525.588" cy="638.592" r="192" fx="525.588" fy="638.592" gradientTransform="matrix(-0.56672219,1.0065537,-1.1024699,-0.69087589,1449.8905,-224.44988)" gradientUnits="userSpaceOnUse" xlink:href="#linearGradient1594"/>
  <radialGradient id="radialGradient879" cx="131.915" cy="55.927" r="160" fx="131.915" fy="55.927" gradientTransform="matrix(0.30782984,-0.71835162,-0.48926311,-0.03958713,-13.967261,153.29823)" gradientUnits="userSpaceOnUse" xlink:href="#linearGradient1722"/>
  <radialGradient id="radialGradient881" cx="525.588" cy="638.592" r="192" fx="525.588" fy="638.592" gradientTransform="matrix(-0.17229795,-0.3442702,-0.33517887,0.23629935,428.23673,127.45786)" gradientUnits="userSpaceOnUse" xlink:href="#linearGradient1594"/>
  <radialGradient id="radialGradient1249-3" cx="-172" cy="20.939" r="15.857" fx="-172" fy="20.939" gradientTransform="matrix(1.1986271,0,0,1.0945536,178.16386,153.90715)" gradientUnits="userSpaceOnUse" xlink:href="#linearGradient8959"/>
  <linearGradient id="linearGradient1247-5" x1="22" x2="62" y1="37" y2="37" gradientTransform="matrix(2.7096779,0,0,2.7096779,-49.612917,103.48383)" gradientUnits="userSpaceOnUse" xlink:href="#linearGradient1209"/>
 </defs>
 <g id="layer1" transform="translate(0,-172)">
  <g style="display:none" id="layer2">
   <text id="context" x="7.95" y="148.65" xml:space="preserve" style="font-size:6.08791494px;line-height:125%;font-family:Cantarell">
    <tspan id="tspan2716" x="7.95" y="148.65">apps</tspan>
   </text>
   <text style="font-weight:bold;font-size:6.08791494px;line-height:125%;font-family:Cantarell" id="text3021" x="7.75" y="157.23" xml:space="preserve">
    <tspan id="tspan3023" x="7.75" y="157.23">org.gnome.ImageViewer</tspan>
   </text>
   <rect width="128" height="128" x="0" y="172" style="fill:#f0f0f0"/>
   <g transform="matrix(0.25,0,0,0.25,6.9488522e-8,225)">
    <rect style="opacity:0.1;fill:#2864b0" width="320" height="448" x="96" y="-180" rx="32" ry="32"/>
    <rect style="opacity:0.1;fill:#2864b0" width="416" height="416" x="48" y="-164" rx="32" ry="32"/>
    <rect style="opacity:0.1;fill:#2864b0" width="448" height="320" x="32" y="-116" rx="32" ry="32"/>
    <circle style="opacity:0.1;fill:#2864b0" cx="256" cy="44" r="240"/>
   </g>
  </g>
  <g id="layer9">
   <rect style="opacity:0.32000002;fill:#f7da50" width="0" height="0" x="0" y="172"/>
  </g>
  <rect style="opacity:0.32000002;fill:#87bae1;fill-opacity:0;stroke:#3d3d3d;stroke-width:0.44194174;stroke-linejoin:round" width="0" height="0" x="-7.33" y="-316" transform="scale(1,-1)"/>
  <circle cx="0" cy="0" r="0" transform="translate(0,172)" style="fill:#9059a1"/>
  <rect style="opacity:0.32000002;fill:#87bae1;fill-opacity:0;stroke:#3d3d3d;stroke-width:0.44194174;stroke-linejoin:round" width="0" height="0" x="-5.33" y="-284" transform="scale(1,-1)"/>
  <rect style="opacity:0.32000002;fill:#87bae1;fill-opacity:0;stroke:#3d3d3d;stroke-width:0.53033006;stroke-linejoin:round" width="0" height="0" x="-70.4" y="-299.2" transform="scale(1,-1)"/>
  <g transform="matrix(1.2689756,0,0,1.2508476,-15.95076,-43.701891)">
   <g transform="matrix(1.15,0,0,1.1666667,-9.5999963,-38.666666)" style="enable-background:new">
    <g style="enable-background:new" transform="matrix(0.20833334,0,0,0.234375,10.666663,215.6875)">
     <path style="fill:url(#radialGradient879)" d="M 33.435547 21.958984 A 50.711864 49.35593 0 0 0 32.476562 22.626953 A 50.711864 49.35593 0 0 0 28.667969 25.882812 A 50.711864 49.35593 0 0 0 25.212891 29.492188 A 50.711864 49.35593 0 0 0 22.146484 33.419922 A 50.711864 49.35593 0 0 0 19.496094 37.625 A 50.711864 49.35593 0 0 0 17.291016 42.068359 A 50.711864 49.35593 0 0 0 15.552734 46.703125 A 50.711864 49.35593 0 0 0 14.298828 51.482422 A 50.711864 49.35593 0 0 0 13.541016 56.361328 A 50.711864 49.35593 0 0 0 13.289062 61.289062 A 50.711864 49.35593 0 0 0 13.416016 64.779297 A 50.711864 49.35593 0 0 0 14.025391 69.677734 A 50.711864 49.35593 0 0 0 15.136719 74.490234 A 50.711864 49.35593 0 0 0 16.734375 79.171875 A 50.711864 49.35593 0 0 0 18.804688 83.675781 A 50.711864 49.35593 0 0 0 21.328125 87.955078 A 50.711864 49.35593 0 0 0 24.275391 91.96875 A 50.711864 49.35593 0 0 0 27.621094 95.673828 A 50.711864 49.35593 0 0 0 31.330078 99.037109 A 50.711864 49.35593 0 0 0 35.365234 102.02344 A 50.711864 49.35593 0 0 0 39.6875 104.60156 A 50.711864 49.35593 0 0 0 44.251953 106.74805 A 50.711864 49.35593 0 0 0 49.013672 108.43945 A 50.711864 49.35593 0 0 0 53.351562 109.51758 L 74.488281 109.51758 A 50.711864 49.35593 0 0 0 77.564453 108.8457 A 50.711864 49.35593 0 0 0 82.375 107.28906 A 50.711864 49.35593 0 0 0 87.001953 105.27539 A 50.711864 49.35593 0 0 0 91.400391 102.82031 A 50.711864 49.35593 0 0 0 95.523438 99.949219 A 50.711864 49.35593 0 0 0 99.332031 96.693359 A 50.711864 49.35593 0 0 0 102.78711 93.083984 A 50.711864 49.35593 0 0 0 105.85352 89.15625 A 50.711864 49.35593 0 0 0 108.50391 84.951172 A 50.711864 49.35593 0 0 0 110.70898 80.507812 A 50.711864 49.35593 0 0 0 112.44727 75.873047 A 50.711864 49.35593 0 0 0 113.70117 71.09375 A 50.711864 49.35593 0 0 0 114.45898 66.214844 A 50.711864 49.35593 0 0 0 114.71094 61.289062 A 50.711864 49.35593 0 0 0 114.58398 57.796875 A 50.711864 49.35593 0 0 0 113.97461 52.898438 A 50.711864 49.35593 0 0 0 112.86328 48.085938 A 50.711864 49.35593 0 0 0 111.26562 43.404297 A 50.711864 49.35593 0 0 0 109.19531 38.900391 A 50.711864 49.35593 0 0 0 106.67188 34.621094 A 50.711864 49.35593 0 0 0 103.72461 30.607422 A 50.711864 49.35593 0 0 0 100.37891 26.902344 A 50.711864 49.35593 0 0 0 96.669922 23.539062 A 50.711864 49.35593 0 0 0 94.535156 21.958984 L 33.435547 21.958984 z" transform="matrix(3.2891987,0,0,2.9237317,41.334787,-148.2027)"/>
     <rect width="0" height="0" x="0" y="0" transform="matrix(1,0,0,-1,0,300)" style="opacity:0.32000002;fill:#87bae1;fill-opacity:0;stroke:#3d3d3d;stroke-width:1.81818175;stroke-linejoin:round"/>
     <rect width="0" height="0" x="0" y="0" transform="matrix(4.1739129,0,0,3.6571428,-11.130432,-149.82858)" style="opacity:0.35;fill:#1c71d8;fill-opacity:0.20331953"/>
     <path style="fill:url(#radialGradient881)" d="M 33.435547 21.958984 A 50.711864 49.35593 0 0 0 32.476562 22.626953 A 50.711864 49.35593 0 0 0 28.667969 25.882812 A 50.711864 49.35593 0 0 0 25.212891 29.492188 A 50.711864 49.35593 0 0 0 22.146484 33.419922 A 50.711864 49.35593 0 0 0 19.496094 37.625 A 50.711864 49.35593 0 0 0 17.291016 42.068359 A 50.711864 49.35593 0 0 0 15.552734 46.703125 A 50.711864 49.35593 0 0 0 14.298828 51.482422 A 50.711864 49.35593 0 0 0 13.541016 56.361328 A 50.711864 49.35593 0 0 0 13.289062 61.289062 A 50.711864 49.35593 0 0 0 13.416016 64.779297 A 50.711864 49.35593 0 0 0 14.025391 69.677734 A 50.711864 49.35593 0 0 0 15.136719 74.490234 A 50.711864 49.35593 0 0 0 16.734375 79.171875 A 50.711864 49.35593 0 0 0 18.804688 83.675781 A 50.711864 49.35593 0 0 0 21.328125 87.955078 A 50.711864 49.35593 0 0 0 24.275391 91.96875 A 50.711864 49.35593 0 0 0 27.621094 95.673828 A 50.711864 49.35593 0 0 0 31.330078 99.037109 A 50.711864 49.35593 0 0 0 35.365234 102.02344 A 50.711864 49.35593 0 0 0 39.6875 104.60156 A 50.711864 49.35593 0 0 0 44.251953 106.74805 A 50.711864 49.35593 0 0 0 49.013672 108.43945 A 50.711864 49.35593 0 0 0 53.351562 109.51758 L 74.488281 109.51758 A 50.711864 49.35593 0 0 0 77.564453 108.8457 A 50.711864 49.35593 0 0 0 82.375 107.28906 A 50.711864 49.35593 0 0 0 87.001953 105.27539 A 50.711864 49.35593 0 0 0 91.400391 102.82031 A 50.711864 49.35593 0 0 0 95.523438 99.949219 A 50.711864 49.35593 0 0 0 99.332031 96.693359 A 50.711864 49.35593 0 0 0 102.78711 93.083984 A 50.711864 49.35593 0 0 0 105.85352 89.15625 A 50.711864 49.35593 0 0 0 108.50391 84.951172 A 50.711864 49.35593 0 0 0 110.70898 80.507812 A 50.711864 49.35593 0 0 0 112.44727 75.873047 A 50.711864 49.35593 0 0 0 113.70117 71.09375 A 50.711864 49.35593 0 0 0 114.45898 66.214844 A 50.711864 49.35593 0 0 0 114.71094 61.289062 A 50.711864 49.35593 0 0 0 114.58398 57.796875 A 50.711864 49.35593 0 0 0 113.97461 52.898438 A 50.711864 49.35593 0 0 0 112.86328 48.085938 A 50.711864 49.35593 0 0 0 111.26562 43.404297 A 50.711864 49.35593 0 0 0 109.19531 38.900391 A 50.711864 49.35593 0 0 0 106.67188 34.621094 A 50.711864 49.35593 0 0 0 103.72461 30.607422 A 50.711864 49.35593 0 0 0 100.37891 26.902344 A 50.711864 49.35593 0 0 0 96.669922 23.539062 A 50.711864 49.35593 0 0 0 94.535156 21.958984 L 33.435547 21.958984 z" transform="matrix(3.2891987,0,0,2.9237317,41.334787,-148.2027)"/>
    </g>
   </g>
  </g>
  <g>
   <path d="m 64.004546,180.05997 c -27.792397,0 -50.322589,22.53019 -50.322589,50.32259 0.01819,4.01036 0.515634,0.26222 1.481855,4.15447 5.198792,-22.90099 25.546071,-39.16156 49.029746,-39.18221 23.189273,0.0255 43.358742,15.89418 48.840752,38.42618 0.84468,-3.6537 1.27833,0.3516 1.29282,-3.39844 0,-27.7924 -22.530189,-50.32259 -50.322584,-50.32259 z M 10,226.32257 v 15.48387 C 10,271.73671 34.263296,296 64.193558,296 c 29.930273,0 54.193562,-24.26329 54.193562,-54.19356 v -15.48387 c 0,13.84045 -5.19575,25.30452 -13.73361,33.6366 -9.454849,13.01499 -24.562219,20.72532 -40.648964,20.74598 C 47.343093,280.68575 31.771387,272.42071 22.418098,258.6323 14.66288,250.42682 10,239.43981 10,226.32257 Z" style="fill:url(#linearGradient1247-5)"/>
   <g style="enable-background:new" transform="matrix(2.5201617,0,0,2.5201617,135.24414,-263.37104)">
    <path style="fill:url(#radialGradient1249-3)" d="m -27.999999,179.7184 c -9.649942,0.009 -17.790289,7.43348 -19.007134,17.335 1.197386,9.91882 9.343034,17.36654 19.007134,17.37859 9.649942,-0.009 17.790289,-7.43348 19.0071335,-17.33499 -1.1973855,-9.91882 -9.3430345,-17.36654 -19.0071335,-17.3786 z"/>
    <path d="m -28.192866,177.4144 c -10.603867,0 -19.2,8.59613 -19.2,19.2 0.0077,0.79575 0.06482,1.39825 0.171094,2.1869 0,-9.0989 9.36791,-16.76992 19.028906,-16.7789 9.67517,0.0117 19.028906,7.68 19.028906,16.8211 0.1080352,-0.80261 0.1651807,-1.41927 0.171094,-2.2291 0,-10.60387 -8.596133,-19.2 -19.2,-19.2 z" style="opacity:0.1;fill:#453637"/>
   </g>
   <circle cx="64.194" cy="230.194" r="50.323" style="fill:none;stroke:#f6f5f4;stroke-width:7.74193621;stroke-linecap:square;stroke-linejoin:round"/>
   <circle cx="106.774" cy="187.613" r="11.613" style="fill:#f6f5f4"/>
   <path d="m 106.77423,199.22583 11.61291,-11.61291 v 42.58064 h -5.80645 z" style="fill:#f6f5f4"/>
   <path style="fill:#f6f5f4" d="m 95.161321,187.61292 11.612909,-11.6129 H 64.19357 v 5.80645 z"/>
   <circle cx="108.71" cy="185.678" r="3.871" style="fill:#c0bfbc"/>
  </g>
  <rect width="0" height="0" x="0" y="0" transform="translate(0,172)" style="fill:#deddda"/>
 </g>
</svg>
